src/assets/images/icons/email.svg

<svg width="22" height="18" viewBox="0 0 22 18" fill="none" xmlns="http://www.w3.org/2000/svg">
<path fill-rule="evenodd" clip-rule="evenodd" d="M19.8935 2.55395L11.0001 8.77934L2.10666 2.55395C2.27204 2.22692 2.61212 2 3.00009 2H19.0001C19.388 2 19.7281 2.22692 19.8935 2.55395ZM22 2.98327C22.0002 2.99295 22.0002 3.00264 22.0001 3.01231V15C22.0001 16.6523 20.6524 18 19.0001 18H3.00009C1.3478 18 8.56184e-05 16.6523 8.56184e-05 15V3.01225C-4.31728e-05 3.00241 -2.65881e-05 2.99256 0.000134861 2.9827C0.00950031 1.33832 1.35357 0 3.00009 0H19.0001C20.6468 0 21.991 1.33863 22 2.98327ZM2.00009 4.92066V15C2.00009 15.5477 2.45237 16 3.00009 16H19.0001C19.5478 16 20.0001 15.5477 20.0001 15V4.92066L11.5735 10.8192C11.2292 11.0603 10.7709 11.0603 10.4266 10.8192L2.00009 4.92066Z" fill="#7F7F7F"/>
</svg>

<svg id="Icon" xmlns="http://www.w3.org/2000/svg" width="24" height="24" viewBox="0 0 24 24">
  <rect id="Bounding_Box" data-name="Bounding Box" width="24" height="24" fill="rgba(255,255,255,0)"/>
  <path id="Shape" d="M3,18a3,3,0,0,1-3-3V3.01C0,3,0,2.99,0,2.98A3,3,0,0,1,3,0H19a3,3,0,0,1,3,2.968c0,.018,0,.036,0,.054V15a3,3,0,0,1-3,3ZM2,15a1,1,0,0,0,1,1H19a1,1,0,0,0,1-1V4.921l-8.427,5.9a1,1,0,0,1-1.147,0L2,4.921ZM11,8.78l8.895-6.226A1,1,0,0,0,19,2H3a1,1,0,0,0-.895.553Z" transform="translate(1 3)" fill="#7f7f7f"/>
</svg>
